icon/gr/capacity.svg

<svg xmlns="http://www.w3.org/2000/svg" width="24" height="24"><path fill="none" stroke="#000" stroke-linecap="round" stroke-width="2" d="M1 19h22V5H1v14Zm3-3h3V8H4v8Zm6 0h3V8h-3v8Z"/></svg>

<svg xmlns="http://www.w3.org/2000/svg" viewBox="0 0 24 24" height="1em" width="1em">
  <path fill="none" stroke="#000" stroke-linecap="round" stroke-width="2" d="M1,19 L23,19 L23,5 L1,5 L1,19 Z M4,16 L7,16 L7,8 L4,8 L4,16 Z M10,16 L13,16 L13,8 L10,8 L10,16 Z"/>
</svg>
